X:1
T:May Day Carol (Essex)
B:Broadwood, L, 1893, English County Songs, London, Leadenhall Press
Z:Lucy Broadwood
F:http://www.folkinfo.org/songs
M:4/4     %Meter
L:1/8     %
K:D
A2 |F2 F2 F2 A2 |G2 F2 G2 E2 |D2 E2 F2 G2 | A6
w:I been a-ram-bling all this night, And some part of this day;
 A2 |d2 e2 f2 e2 |d2 B2 A2 F2 |G2 EE D2 C2 | D6 ||
w:And now re-turn-ing back a-gain I brought you a gar-land gay;
|: A2 |F2 F2 F2 A2 |G2 F2 G2 E2 |D2 E2 F2 G2 | A6
w: A gar-land gay I brought you here, And at your door I stand,
 d2 |ff ee d2 BB |A2 FF F2 E2 |D2 D2 D2 D2 | D6 :|
w: 'Tis noth-ing but a sprout but 'tis well bud-ded out, The work of Our Lord's hand.
A2 |B2 AG F2 E2 |D6 z A | [M:6/8] A2 F D2 D | D2 D D2
w: And turn to the Lord a-gain. Why don't you do as we have done,
 B |B/A3/2 A G2 F |(F3 E2) A |A2 F D2 B |
w: The ve-ry first day of May_ And from my pa-rents
B2 G E2 A |A2 D F2 E |D3- D2 z |]
w:I have come, And would no long-er stay.
W:I been a-rambing all this night,
W:And some time of this day;
W:And now returning back again
W:I brought you a garland gay.
W:
W:A garland gay I have brought you here,
W:And at your door I stand,
W:'Tis nothing but a sprout but 'tis well budded out,
W:The work of Our Lord's hand.
W:
W:So dear, so dear, as Christ loved us,
W:And for our sins was slain,
W:Christ bids us turn from wickedness,
W:And turn to the Lord again.
W:
W:Why don't you do as we have done,
W:The very first day of May,
W:And from my parents I have come
W:And would no longer stay.
